svg/s/HK.svg

<svg width="16" height="12" viewBox="0 0 16 12" fill="none" xmlns="http://www.w3.org/2000/svg">
<g clip-path="url(#clip0_270_55013)">
<rect width="16" height="12" fill="white"/>
<path fill-rule="evenodd" clip-rule="evenodd" d="M0 0V12H16V0H0Z" fill="#EA1A1A"/>
<mask id="mask0_270_55013" style="mask-type:luminance" maskUnits="userSpaceOnUse" x="0" y="0" width="16" height="12">
<path fill-rule="evenodd" clip-rule="evenodd" d="M0 0V12H16V0H0Z" fill="white"/>
</mask>
<g mask="url(#mask0_270_55013)">
<path fill-rule="evenodd" clip-rule="evenodd" d="M7.93474 5.78739C7.93474 5.78739 5.03989 3.20576 8.49432 1.70157C8.49432 1.70157 9.49893 2.80988 8.74528 4.05411C8.49802 4.46219 8.28948 4.7536 8.13277 4.97259C7.81169 5.42126 7.70813 5.56597 7.93474 5.78739ZM3.66235 3.93376C3.46354 7.69618 7.06701 6.26104 7.06701 6.26104C6.76777 6.36469 6.68462 6.20737 6.42691 5.71977L6.42691 5.71976C6.30107 5.48167 6.13361 5.16482 5.87904 4.76116C5.10307 3.53068 3.66235 3.93376 3.66235 3.93376ZM9.11905 5.91353C9.11905 5.91353 12.835 7.02599 10.343 9.85181C10.343 9.85181 8.96333 9.27322 9.11905 7.827C9.17016 7.35279 9.23558 7.00057 9.28476 6.73584C9.38555 6.19324 9.41807 6.01818 9.11905 5.91353ZM8.14235 6.78086C8.14235 6.78086 8.80852 10.602 5.16682 9.63635C5.16682 9.63635 5.06767 8.14366 6.43091 7.63642C6.87807 7.47001 7.22244 7.37103 7.48123 7.29664L7.48124 7.29664L7.48127 7.29663L7.48127 7.29663C8.01147 7.14423 8.18248 7.09508 8.14235 6.78086ZM12.7393 5.13766C10.4616 2.13657 8.63689 5.55924 8.63689 5.55924C8.79851 5.28683 8.96358 5.35326 9.47512 5.55912C9.72499 5.65967 10.0575 5.79349 10.5127 5.93734C11.8997 6.37569 12.7393 5.13766 12.7393 5.13766Z" fill="white"/>
<path d="M5.08057 5.10403C5.08057 5.10403 5.80847 6.24961 7.00052 6.24961" stroke="#EA1A1A" stroke-width="0.5"/>
<path d="M7.93018 3.52512C7.93018 3.52512 7.27694 4.73024 7.83657 5.78275" stroke="#EA1A1A" stroke-width="0.5"/>
<path d="M11.0549 4.88078C11.0549 4.88078 9.52984 4.64958 8.7322 5.53544" stroke="#EA1A1A" stroke-width="0.5"/>
<path d="M10.1642 7.67247C10.1642 7.67247 9.85983 6.16027 8.75459 5.71373" stroke="#EA1A1A" stroke-width="0.5"/>
<path d="M6.96667 8.49333C6.96667 8.49333 8.28358 7.69013 8.32518 6.49881" stroke="#EA1A1A" stroke-width="0.5"/>
</g>
</g>
<defs>
<clipPath id="clip0_270_55013">
<rect width="16" height="12" fill="white"/>
</clipPath>
</defs>
</svg>

<svg width="16" height="12" fill="none" xmlns="http://www.w3.org/2000/svg">
  <mask id="a" maskUnits="userSpaceOnUse" x="0" y="0" width="16" height="12">
    <path fill="#fff" d="M0 0h16v12H0z"/>
  </mask>
  <g mask="url(#a)">
    <path fill-rule="evenodd" clip-rule="evenodd" d="M0 0v12h16V0H0z" fill="#EA1A1A"/>
    <mask id="b" maskUnits="userSpaceOnUse" x="0" y="0" width="16" height="12">
      <path fill-rule="evenodd" clip-rule="evenodd" d="M0 0v12h16V0H0z" fill="#fff"/>
    </mask>
    <g mask="url(#b)">
      <path fill-rule="evenodd" clip-rule="evenodd" d="M7.935 5.787s-2.895-2.581.56-4.085c0 0 1.004 1.108.25 2.352-.247.408-.456.7-.612.919-.321.448-.425.593-.198.814zM3.662 3.934C3.464 7.696 7.067 6.26 7.067 6.26c-.3.104-.382-.054-.64-.541-.126-.238-.293-.555-.548-.959-.776-1.23-2.217-.827-2.217-.827zm5.457 1.98s3.716 1.112 1.224 3.938c0 0-1.38-.579-1.224-2.025.051-.474.117-.826.166-1.091.1-.543.133-.718-.166-.822zm-.977.867s.667 3.821-2.975 2.855c0 0-.1-1.492 1.264-2 .447-.166.791-.265 1.05-.34.53-.152.701-.2.661-.515zm4.597-1.643c-2.277-3.001-4.102.421-4.102.421.162-.272.327-.206.838 0 .25.1.582.234 1.038.378 1.387.439 2.226-.8 2.226-.8z" fill="#fff"/>
      <path d="M5.08 5.104S5.809 6.25 7 6.25m.93-2.725s-.653 1.205-.093 2.258m3.218-.903s-1.525-.23-2.323.655m1.432 2.137S9.86 6.16 8.754 5.714M6.967 8.493S8.284 7.69 8.325 6.5" stroke="#EA1A1A" stroke-width=".5"/>
    </g>
  </g>
</svg>
